actions/22x22-light/page-4sides.svg

<svg xmlns="http://www.w3.org/2000/svg" viewBox="0 0 22 22">
 <defs id="defs3051">
   <style type="text/css" id="current-color-scheme">
     .ColorScheme-Text {
       color:#4d4d4d;
     }
     </style>
 </defs>
   <path
      style="fill:currentColor;fill-opacity:1;stroke:none"
      d="m2 3v16h6 6 1 5v-16h-10zm1 1h4v14h-4zm5 0h3v14h-3zm4 0h3v14h-3zm4 0h3v14h-3z"
      class="ColorScheme-Text" />
</svg>

<svg xmlns="http://www.w3.org/2000/svg" viewBox="0 0 22 22">
  <defs id="defs3051">
    <style type="text/css" id="current-color-scheme">
      .ColorScheme-Text {
        color:#4d4d4d;
      }
      </style>
  </defs>
 <path 
     style="fill:currentColor;fill-opacity:1;stroke:none" 
     d="M 2 3 L 2 19 L 8 19 L 14 19 L 15 19 L 20 19 L 20 3 L 10 3 L 2 3 z M 3 4 L 7 4 L 7 18 L 3 18 L 3 4 z M 8 4 L 11 4 L 11 18 L 8 18 L 8 4 z M 12 4 L 15 4 L 15 18 L 12 18 L 12 4 z M 16 4 L 19 4 L 19 18 L 16 18 L 16 4 z "
	 class="ColorScheme-Text"
     />
</svg>
